X:195
T:Much to do about nothing. Ru1.195
%%VWML:RutherfordVol1-2248-p78-0p78
Z:Transcription by Village Music Project, Steve Mansfield July 2015
F:http://www.village-music-project.org.uk/
F:http://www.vwml.org/record/RutherfordVol1/2248/p78
L:1/8
W:The first & second Couple foot it all four & Right Hand &
W:Left half Round .| The same Back again :| Foot it all four &
W:Hands across .|. Foot it & the same Back again :||: Gallop
W:Down the Middle & up again & Cast off :|| Right Hand
W:and Left with the top Couple :|
Q:3/8=90
K:G
|:G2G, G2G, | GAB cBA | G2G, G2G, | GBG AFD |
G2G, G2G, | GAB cBA | BdB AFD | GDC B,G,G, :|
|: gdB G2B | eag fef | gdB G2d | Eed ^cBc |
d2D d2D | def gfe | faf ecA | dAG FED :|
|: Tgfg Tgfg | Tgfg dBG | Tgfg Tgfg | gbg afd |
Tgfg Tgfg | Tgfg dBG | c2e B2d | ABG FED :|]
T:Ale Wife & her Barrel. Ru1.196, The
B:Rutherford's Country Dances Vol 1, 1756
Z:village music project, Steve Mansfield July 2015
M:C|
L:1/8
W:Cast off & turn your Partner .| Cast up again
W:& turn :| Foot it & Hands across .|. The same
W:Back again :||: First Man set to the second Wo.
W:& turn her .|| First woman does the same :||
W:Cross over figure In & Right Hand & Left :|
Q:2/4=60
K:G
|:G2GB AGAB | G2GB dedB | G2GB AGAB | dBGB ded2 :|
|: dege agfd | efge afg2 | dege agfe | edBd efg2 :|]
